src/assets/icons/socket-data.svg

<?xml version="1.0" encoding="utf-8"?>
<!-- Generator: Adobe Illustrator 16.0.0, SVG Export Plug-In . SVG Version: 6.00 Build 0)  -->
<!DOCTYPE svg PUBLIC "-//W3C//DTD SVG 1.1//EN" "http://www.w3.org/Graphics/SVG/1.1/DTD/svg11.dtd">
<svg version="1.1" id="Layer_1" xmlns="http://www.w3.org/2000/svg" xmlns:xlink="http://www.w3.org/1999/xlink" x="0px" y="0px"
	 width="178px" height="178px" viewBox="0 -9 178 178" enable-background="new 0 -9 178 178" xml:space="preserve">
<path fill="#010101" d="M61.464,51.993h6.428v6.351h-6.428V51.993z M178,80c0,1.866-0.533,3.646-1.602,5.066l-39.517,70.223
	c-1.515,2.845-4.45,4.711-7.833,4.711h-80.1c-3.382,0-6.319-1.866-7.832-4.711L1.602,85.066C0.533,83.646,0,81.866,0,80
	s0.533-3.645,1.602-5.066L41.118,4.711C42.631,1.867,45.568,0,48.95,0h80.1c3.384,0,6.318,1.867,7.833,4.711l39.516,70.223
	C177.467,76.355,178,78.134,178,80z M122.963,102.792c0-3.506-3.801-6.351-8.49-6.351H63.528c-4.689,0-8.491,2.845-8.491,6.351
	v6.351c0,3.508,3.802,6.352,8.491,6.352h50.945c4.689,0,8.49-2.844,8.49-6.352V102.792z M122.963,77.393
	c0-3.507-3.801-6.35-8.49-6.35H63.528c-4.689,0-8.491,2.843-8.491,6.35v6.35c0,3.507,3.802,6.351,8.491,6.351h50.945
	c4.689,0,8.49-2.844,8.49-6.351V77.393z M122.963,51.993c0-3.506-3.801-6.35-8.49-6.35H63.527c-4.689,0-8.491,2.844-8.491,6.35
	v6.351c0,3.507,3.802,6.351,8.491,6.351h50.946c4.688,0,8.489-2.844,8.489-6.351L122.963,51.993L122.963,51.993z M61.464,83.743
	h6.428v-6.35h-6.428V83.743z M61.464,109.143h6.428v-6.351h-6.428V109.143z"/>
</svg>

<?xml version="1.0" encoding="UTF-8" standalone="no"?>
<svg width="178px" height="160px" viewBox="0 0 178 160" version="1.1" xmlns="http://www.w3.org/2000/svg" xmlns:xlink="http://www.w3.org/1999/xlink">
    <!-- Generator: Sketch 3.6.1 (26313) - http://www.bohemiancoding.com/sketch -->
    <title>socket-data</title>
    <desc>Created with Sketch.</desc>
    <defs></defs>
    <g id="Page-1" stroke="none" stroke-width="1" fill="none" fill-rule="evenodd">
        <g id="socket-data" fill="#010101">
            <g id="Layer_1">
                <path d="M61.464,51.993 L67.892,51.993 L67.892,58.344 L61.464,58.344 L61.464,51.993 L61.464,51.993 Z M178,80 C178,81.866 177.467,83.646 176.398,85.066 L136.881,155.289 C135.366,158.134 132.431,160 129.048,160 L48.948,160 C45.566,160 42.629,158.134 41.116,155.289 L1.602,85.066 C0.533,83.646 0,81.866 0,80 C0,78.134 0.533,76.355 1.602,74.934 L41.118,4.711 C42.631,1.867 45.568,0 48.95,0 L129.05,0 C132.434,0 135.368,1.867 136.883,4.711 L176.399,74.934 C177.467,76.355 178,78.134 178,80 L178,80 Z M122.963,102.792 C122.963,99.286 119.162,96.441 114.473,96.441 L63.528,96.441 C58.839,96.441 55.037,99.286 55.037,102.792 L55.037,109.143 C55.037,112.651 58.839,115.495 63.528,115.495 L114.473,115.495 C119.162,115.495 122.963,112.651 122.963,109.143 L122.963,102.792 L122.963,102.792 Z M122.963,77.393 C122.963,73.886 119.162,71.043 114.473,71.043 L63.528,71.043 C58.839,71.043 55.037,73.886 55.037,77.393 L55.037,83.743 C55.037,87.25 58.839,90.094 63.528,90.094 L114.473,90.094 C119.162,90.094 122.963,87.25 122.963,83.743 L122.963,77.393 L122.963,77.393 Z M122.963,51.993 C122.963,48.487 119.162,45.643 114.473,45.643 L63.527,45.643 C58.838,45.643 55.036,48.487 55.036,51.993 L55.036,58.344 C55.036,61.851 58.838,64.695 63.527,64.695 L114.473,64.695 C119.161,64.695 122.962,61.851 122.962,58.344 L122.963,51.993 L122.963,51.993 L122.963,51.993 Z M61.464,83.743 L67.892,83.743 L67.892,77.393 L61.464,77.393 L61.464,83.743 L61.464,83.743 Z M61.464,109.143 L67.892,109.143 L67.892,102.792 L61.464,102.792 L61.464,109.143 L61.464,109.143 Z" id="Shape"></path>
            </g>
        </g>
    </g>
</svg>
